X:1
T:The Black Hoe
M:6/8
L:1/8
Q:80
C:Trad. arr M. Grey
S:Jig
K:HP
|: f | \
{a}gdB{g}B{d}A{d}B | \
{g}A{d}G{d}A{g}GBd | \
{a}gdB{g}B{d}A{d}B |
{g}GBd{gef}e2f{a}gdB{g}B{d}A{d}B | \
{g}A{d}G{d}A{g}GBd | \
{a}gdB{g}edB |
{g}ABd{gef}e2 :: \
f | \
g{a}fg{ag}a2g | \
{afg}f2eafd |
g{a}fg{ag}a2g | \
{a}fed{gef}e2f|1 g{a}fg{ag}a2g | \
{afg}f2eafd |
{a}gdB{g}edB | \
{g}ABd{gef}e2 :|
